X: 13353
T: Flawless Juggler, The
R: reel
M: 4/4
K: Edorian
"Em"EFBE dEBE|"F#m"AFEF CDFG|"Em"EFBE dEBE|"F#m"fcBF cBFD|
"Em"EFBE dEBE|"F#m"AFEF CDFG|"Em"EFdE "F#m"cEBE|"G"fcBF "A"fcFD||
|:"Bm"B,/B,/B, DB, FDB,F|"A"ECA,F, A,CEC|"Em"B,/B,/B, DB, FDB,F|"Em"B(3F/B/c/ dc "F#m"Bfef|
"Bm"bfeB "A"fcBF|"G"cBFE "F#m"FEDC|"G"B,DFA "Em"G,B,DF|1 "F#m"EDCD "Bm"B,2 B,A,:|2 "F#m"EDCD "Bm"B,4||

